src/actions/32/go-parent-folder.svg

<svg xmlns="http://www.w3.org/2000/svg" viewBox="0 0 32 32">
  <defs
     id="defs3051">
    <style
       type="text/css"
       id="current-color-scheme">
      .ColorScheme-Text {
        color:#2e3440;
      }
      </style>
  </defs>
  <path
     style="fill:currentColor;fill-opacity:1;stroke:none" 
     d="M 4 4 L 4 28 L 18 28 L 18 27 L 5 27 L 5 14 L 10 14 L 13 11 L 27 11 L 27 16 L 28 16 L 28 7 L 18 7 L 15 4 L 4 4 z M 23 16 L 18 21 L 18.707031 21.707031 L 22.5 17.914062 L 22.5 28.003906 L 23.5 28.003906 L 23.5 17.914062 L 27.292969 21.707031 L 28 21 L 24 17 L 23 16 z "
     id="path71" 
     class="ColorScheme-Text"
     />
</svg>

<svg viewBox="0 0 32 32" xmlns="http://www.w3.org/2000/svg">
 <defs>
  <style type="text/css">.ColorScheme-Text {
        color:#2e3440;
      }</style>
 </defs>
 <path class="ColorScheme-Text" d="m4 4v24h14v-1h-13v-13h5l3-3h14v5h1v-9h-10l-3-3h-11zm19 12-5 5 0.70703 0.70703 3.793-3.793v10.09h1v-10.09l3.793 3.793 0.70703-0.70703-5-5z" fill="currentColor"/>
</svg>
